usr/share/icons/biglinux-icons-material-dark/symbolic/actions/run-build-configure.svg

<svg xmlns="http://www.w3.org/2000/svg" viewBox="0 0 16 16">
  <defs id="defs3051">
    <style type="text/css" id="current-color-scheme">
      .ColorScheme-Text {
        color:#dedede;
      }
      </style>
  </defs>
 <path style="fill:currentColor;fill-opacity:1;stroke:none" 
     d="M 7 2 L 7 3.1015625 A 5 5 0 0 0 5.2460938 3.8320312 L 4.4648438 3.0507812 L 3.0507812 4.4648438 L 3.8320312 5.2460938 A 5 5 0 0 0 3.1054688 7 L 2 7 L 2 9 L 3.1015625 9 A 5 5 0 0 0 3.8320312 10.753906 L 3.0507812 11.535156 L 4.4648438 12.949219 L 5.2460938 12.167969 A 5 5 0 0 0 7 12.894531 L 7 14 L 9 14 L 9 12.898438 L 9 11.869141 A 4 4 0 0 1 8 12 A 4 4 0 0 1 5.1308594 10.787109 A 4 4 0 0 1 4 8 A 4 4 0 0 1 5.2128906 5.1308594 A 4 4 0 0 1 8 4 A 4 4 0 0 1 10.869141 5.2128906 A 4 4 0 0 1 12 8 L 14 8 L 14 7 L 12.898438 7 A 5 5 0 0 0 12.167969 5.2460938 L 12.949219 4.4648438 L 11.535156 3.0507812 L 10.753906 3.8320312 A 5 5 0 0 0 9 3.1054688 L 9 2 L 7 2 z M 7 6 L 7 10 L 10 8 L 7 6 z M 10 9 L 10 10 L 14 10 L 14 9 L 10 9 z M 10 11 L 10 12 L 14 12 L 14 11 L 10 11 z M 10 13 L 10 14 L 14 14 L 14 13 L 10 13 z "
     class="ColorScheme-Text"
     />
</svg>

<svg xmlns="http://www.w3.org/2000/svg" viewBox="0 0 16 16">
<defs id="defs3051">
<style id="current-color-scheme" type="text/css">
.ColorScheme-Contrast{color:#dedede}
</style>
</defs>
<path d="M7 2v1.102a5 5 0 0 0-1.754.73l-.781-.781L3.05 4.465l.781.781A5 5 0 0 0 3.105 7H2v2h1.102a5 5 0 0 0 .73 1.754l-.781.781 1.414 1.414.781-.781A5 5 0 0 0 7 12.895V14h2v-2.131A4 4 0 0 1 8 12a4 4 0 0 1-2.87-1.213A4 4 0 0 1 4 8a4 4 0 0 1 1.213-2.87A4 4 0 0 1 8 4a4 4 0 0 1 2.87 1.213A4 4 0 0 1 12 8h2V7h-1.102a5 5 0 0 0-.73-1.754l.781-.781-1.414-1.414-.781.781A5 5 0 0 0 9 3.105V2zm0 4v4l3-2zm3 3v1h4V9zm0 2v1h4v-1zm0 2v1h4v-1z" class="ColorScheme-Contrast" style="fill:currentColor;fill-opacity:1;stroke:none"/>
</svg>
